assets/about/shapeleft.svg

<svg width="549" height="442" viewBox="0 0 549 442" fill="none" xmlns="http://www.w3.org/2000/svg">
<mask id="mask0_1_275" style="mask-type:alpha" maskUnits="userSpaceOnUse" x="55" y="-121" width="459" height="530">
<path d="M312.701 -119.644C305.684 -120.689 298.572 -121.104 291.476 -120.826C284.997 -120.573 278.522 -120.05 272.043 -119.706C211.811 -117.041 161.215 -93.3584 119.588 -49.7201C81.9904 -10.3156 62.0517 36.8116 56.6244 90.4432C51.9118 137.02 64.1912 179.986 86.0237 220.575C105.44 256.673 130.601 288.486 159.415 317.591C189.303 347.78 222.5 373.485 259.539 394.272C268.685 399.402 278.353 403.388 287.995 407.437C290.056 408.301 292.311 409.19 294.259 407.311C295.858 405.771 295.773 403.811 295.328 401.928C294.848 399.91 293.978 398.005 293.012 396.164C288.056 386.723 285.113 376.637 283.041 366.238C280.602 353.983 284.964 341.965 301.758 341.214C345.56 339.251 384.817 323.674 419.751 297.653C470.022 260.203 500.452 210.045 510.219 148.301C520.566 82.8746 505.868 22.7784 465.876 -30.2646C430.959 -76.5703 384.954 -104.834 329.447 -116.626C323.955 -117.793 318.377 -118.796 312.701 -119.644Z" fill="white"/>
</mask>
<g mask="url(#mask0_1_275)">
<path d="M575.481 -80.6163L526.903 147.992L462.881 133.885L462.228 133.743C447.065 130.521 431.307 131.46 416.617 136.47L398.983 142.49L386.576 120.659C385.575 118.908 384.39 117.258 383.042 115.749C377.947 110.038 370.934 106.659 363.299 106.227C355.661 105.794 348.309 108.36 342.601 113.453L329.41 125.221L326.31 71.9079C325.769 62.5403 320.151 54.2565 311.63 50.29C305.463 47.4318 298.552 47.1279 292.161 49.4614C285.771 51.7918 280.677 56.4727 277.81 62.6347L253.863 114.111L253.501 78.1093C253.392 67.7666 247.689 58.2551 238.621 53.2943C231.904 49.6134 224.168 48.7698 216.827 50.9178C209.484 53.0621 203.416 57.9328 199.739 64.6416L184.149 93.0944L181.981 73.4812C180.615 61.1804 171.568 51.1926 159.462 48.6206L142.689 45.0572C134.094 43.2311 125.645 48.7146 123.819 57.3095C121.993 65.9043 127.483 74.3494 136.078 76.1754L150.6 79.2606L156.951 136.686C158.115 147.135 167.57 154.712 178.038 153.554C184.219 152.87 189.693 149.2 192.676 143.752L221.8 90.6049L222.606 170.62C222.659 175.717 224.69 180.491 228.336 184.062C230.956 186.632 234.189 188.353 237.697 189.099C239.06 189.388 240.471 189.532 241.899 189.517C249.197 189.441 255.912 185.121 259.015 178.482L296.007 98.9684L298.408 140.21C298.798 146.996 301.815 153.224 306.893 157.747C311.971 162.264 318.507 164.534 325.294 164.148C331.006 163.82 336.504 161.537 340.775 157.729L360.855 139.811L371.314 158.207C378.865 171.47 394.817 177.52 409.264 172.595L426.898 166.578C436.278 163.377 446.192 162.79 456.03 164.952L520.291 179.11L460.481 460.676L-18.3478 358.947L96.6519 -182.345L575.481 -80.6163Z" fill="#EBEBEB"/>
</g>
</svg>

<svg xmlns="http://www.w3.org/2000/svg" width="549" height="442" fill="none" xmlns:v="https://vecta.io/nano"><mask id="A" maskUnits="userSpaceOnUse" x="55" y="-121" width="459" height="530" mask-type="alpha"><path d="M312.701-119.644c-7.017-1.045-14.129-1.46-21.225-1.182-6.479.253-12.954.776-19.433 1.12-60.232 2.665-110.828 26.348-152.455 69.986C81.99-10.316 62.052 36.812 56.624 90.443c-4.713 46.577 7.567 89.543 29.399 130.132 19.416 36.098 44.577 67.911 73.391 97.016 29.888 30.189 63.085 55.894 100.124 76.681 9.146 5.13 18.814 9.116 28.456 13.165 2.061.864 4.316 1.753 6.264-.126 1.599-1.54 1.514-3.5 1.069-5.383-.48-2.018-1.35-3.923-2.316-5.764-4.956-9.441-7.899-19.527-9.971-29.926-2.439-12.255 1.923-24.273 18.717-25.024 43.802-1.963 83.059-17.54 117.993-43.561 50.271-37.45 80.701-87.608 90.468-149.352 10.347-65.426-4.351-125.523-44.343-178.566-34.917-46.306-80.922-74.569-136.429-86.361a278.53 278.53 0 0 0-16.746-3.018z" fill="#fff"/></mask><g mask="url(#A)"><path d="M575.481-80.616l-48.578 228.608-64.022-14.107-.653-.142c-15.163-3.222-30.921-2.283-45.611 2.727l-17.634 6.02-12.407-21.831a28.92 28.92 0 0 0-3.534-4.91c-5.095-5.711-12.108-9.09-19.743-9.522s-14.99 2.133-20.698 7.226l-13.191 11.768-3.1-53.313c-.541-9.368-6.159-17.651-14.68-21.618a25.33 25.33 0 0 0-19.469-.829c-6.39 2.33-11.484 7.011-14.351 13.173l-23.947 51.476-.362-36.002c-.109-10.343-5.812-19.854-14.88-24.815-6.717-3.681-14.453-4.525-21.794-2.376s-13.411 7.015-17.088 13.724l-15.59 28.453-2.168-19.613a28.6 28.6 0 0 0-22.519-24.861l-16.773-3.563c-8.595-1.826-17.044 3.657-18.87 12.252s3.664 17.04 12.259 18.866l14.522 3.085 6.351 57.425c1.164 10.449 10.619 18.026 21.087 16.868 6.181-.684 11.655-4.354 14.638-9.802L221.8 90.605l.806 80.015c.053 5.097 2.084 9.871 5.73 13.442a18.96 18.96 0 0 0 9.361 5.037c1.363.289 2.774.433 4.202.418 7.298-.076 14.013-4.396 17.116-11.035l36.992-79.514 2.401 41.242c.39 6.786 3.407 13.014 8.485 17.537a25.34 25.34 0 0 0 18.401 6.401c5.712-.328 11.21-2.611 15.481-6.419l20.08-17.918 10.459 18.396a31.88 31.88 0 0 0 37.95 14.388l17.634-6.017c9.38-3.201 19.294-3.788 29.132-1.626l64.261 14.158-59.81 281.566-478.829-101.729 115-541.292L575.481-80.616z" fill="#ebebeb"/></g></svg>
